X: 4570
T:Sweet Cream and Peaches
C:from John W. Summers
M:C
L:1/8
Q:385
Z:posted by Joel Shimberg 12/98
K:D
fa | a2b2a2 fe | defd edBd | AFAB dBde | fdfa e2fa |
a2b2a2 fe | defd edBd | AFAB dBde | fdec d2::A2 ||
A6dA | BAFD EFDE | FAAF ABde | fedf edBd |
A6dA | BAFD EFDE | FAAF ABde | fdec d2:|
